!!!COM: Mozart, Wolfgang Amadeus
!!!OTL: Musikalische Würfelspiele, Kontre-Tänze
!!!SCA: K<sup>6</sup> Anh. C30.01 (K<sup>3</sup> Anh. 294d)
**kern	**kern
*staff2	*staff2
*clefF4	*clefG2
*M2/4	*M2/4
*MM110	*MM110
*>[A,A1,A,A2,B]	*>[A,A1,A,A2,B]
*>norep[A,A2,B]	*>norep[A,A2,B]
*>A	*>A
=105	=105
4C	16cc
.	16b
.	16cc
.	16dd
4C	16ee
.	16dd
.	16ee
.	16ff
=81	=81
4C	8cc
.	8g
4r	8cc
.	8ee
=40	=40
8G	16ff
.	16ee
8GG	16dd
.	16cc
8GG	16b
.	16cc
8GG	16dd
.	16b
=37	=37
16C	8cc
16c	.
16B	8ee
16c	.
4C	4g
=82	=82
16D	4dd
16F#	.
16A	.
16G	.
16F#	8dd
16D	.
16E	8dd
16F#	.
=27	=27
4BB 4G	16aaQ
.	16gg
.	16ff#
.	16gg
4BB	16dd
.	16gg
.	16dd
.	16b
=132	=132
16C	8ee
16A	.
16F#	4cc
16A	.
16AA	.
16D	.
16C	16a
16D	16f#
=115	=115
*>A1	*>A1
4GG	4g 4b 4gg
16G	4r
16F	.
16E	.
16D	.
=115:|!	=115:|!
*>A2	*>A2
4GG	4g 4b 4gg
16GG	4r
16AA	.
16BB	.
16C#	.
=22||	=22||
*>B	*>B
4D	16aa
.	16bb
.	16aa
.	16gg
4C 4D	16ggQ
.	16ff#
.	16ee
.	16dd
=104	=104
4G	8gg
.	16ddd
.	16bb
4GG	4gg
=72	=72
16C	4ee
16E	.
16G	.
16E	.
16C	8cc
16E	.
16G	8cc
16E	.
=46	=46
16G	8dd
16GG	.
16BB	8b
16D	.
16G	4g
16F	.
16E	.
16D	.
=128	=128
16C	8g
16G	.
16E	4cc
16G	.
16C	.
16G	.
16E	8ee
16G	.
=103	=103
4C	16gg
.	16ccc
.	16gg
.	16ff
4r	16ee
.	16cc
.	16ee
.	16gg
=129	=129
4G	8ff
.	8dd
4GG	8b
.	8g
=146	=146
4C	4cc
4CC	4c
==	==
*-	*-
